X:2762
T:I Dreamed There Were Unicorns
O:england
S:Digital Tradition, unicorn2
N:Author: Bill Caddick
D:Sung by Chris Foster on All Things in Common
M:4/4
L:1/8
Q:2/4=100
W:We were traveling north to sing and play
W:For friends that we had never met
W:Been working hard and didn't speak
W:The sky was grey and threatened wet
W:And I dreamed that I saw unicorns
W:Dreamed I saw them wild and white
W:their sudden beauty lit the world
W:Like a star will light a winter's night
W:
W:Pure as love with manes of milk
W:They danced and pranced and cried aloud
W:Bright as rainbows round the stars
W:Their eyes were soft and sad and proud
W:
W:And I wept for the wild and dirty world
W:To which this beauty now was lost
W:And cursed the hungry mind of man
W:That feeds the future at such cost
W:My head was bowed, my eyes were closed
W:When in my ears their voices rang
W:And these few words lodged deep inside
W:And in my very soul they sang
W:
W:We never went away
W:You always knew that we were near
W:Remember how to look for us
W:You'll see we were always here
W:
W:I raised my eyes to seek them out
W:The world was empty all around
W:The rain came tumbling from the sky
W:It drowned all dreams upon the ground
W:And when they asked me why I wept
W:Like one who for his dead love mourns
W:The only answer I could give
W:I dreamed that there were unicorns
W:
W:We never went away
W:You always knew that we were near
W:Remember how to look for us
W:You'll see we were always here
K:G
B,B,|EF2G- G3G|F2G2 F-E2E|D3E D2C2|B,EE4zB,|
E2F2 G3G|FG2F- E3z|zDDE D3C|B,E2E3z2|
zD/D/GG G2B2|A2BA3z2|z2AB A2E2|G2G2 F-E3|
zDGG G2B2|ABA4AA|A2B2 A3A|GG2F- E3z||
zB2A ^G-F2E|A3B ^G2B2|B3A ^G-F2E|A3B F4|
z2BA ^G-FE2|A3B ^G4|z=GFD F-EE-F|E6E-F|E8||


